X:1
T:Iphigenie auf Tauris
T:Leih aus deines Himmels Höhen
T:Christoph Willibald Gluck
T:Hymne Chaste fille de Latone * aus Iphigenie in Tauris
T:Leih aus deines Himmels Höhen
T:Chor der Priesterinnen **
T:CPDL - Creative Commons Attribution Non Commercial 3.0
T:CPDL - Creative Commons Attribution Non Commercial 3.0
T:CPDL - Creative Commons Attribution Non Commercial 3.0
C:Christoph Willibald Gluck
Z:CPDL - Creative Commons Attribution Non Commercial 3.0
%%score [ 1 2 3 4 ]
L:1/8
Q:1/4=120
M:2/2
K:G
V:1 treble nm="Sopran"
V:2 treble nm="Alt"
V:3 treble-8 nm="Tenor"
V:4 bass nm="Bass"
V:1
"^Ernst und erhaben"!p! B4 d4 | G4 G4 |!<(! A4 (B2 c2)!<)! |!mf! (c2!>(! B2) B2!>)! z2 | %4
w: Leih' aus|dei- nes|Him- mels *|Hö- * hen|
!mf! g4 f4 |!<(! (e4!<)! d2) e2 |!f! ^c6!>(! c2 | d6!>)! z2 |!p! d4 B4 | c4!<(! d4 | %10
w: uns, o|Gott, _ ein|gnä- dig|Ohr!|Bis zu|dei- nem|
 B4!<)!!mf! c4 |!>(! (B4 !breath!A4)!>)! |!mf! G2 G2 A2 B2 | (d2 c2 B2) A2 | (B4 A2!>(! G2) | %15
w: Thron em-|por _|stei- ge dei- ner|Kin- * * der|Fle- * *|
 G4!>)! z4!fine! || d4 c4 |!<(! e4!<)! d4 |!f!!<(! (g4 f2) e2!<)! | e4!>(! d2!>)! z2 | %20
w: hen!|Du al-|lein, aus|ew'- * ger|Gna- de,|
!p! B4!<(! d4 | (^c4!<)! d2)!f! e2 | (f4 e2)!>(! d2 | d6!>)! z2 |!p! =c4 B4 | A4 G4 | %26
w: kennst und|gibst, _ was|uns _ ge-|bricht,|und auf|un- sers|
!<(! (c4 B2) c2!<)! |!mf! (B2!>(! A2) !breath!A4!>)! |!mf!!<(! d4!<)! (g2 f2) |!f! (f2 e2 d2) c2 | %30
w: Le- * bens|Pfa- * de|bist du _|Trost _ _ und|
 (B4 A2) G2 |!>(! G6!>)! z2 |!p! B4!<(! d4 | c4!<)! e4 |!f! =f4 f4 |!>(! e4!>)! !breath!d4 | %36
w: Heil _ und|Licht.|Dir ist|ganz die|Zu- kunft|hel- le|
!mf! g4 =f4 | e4"^dim.\n" d4 | c4!p! d4 | c6 z2 |!mf!!<(! e4 e4 | e4!<)! e4 |!f! ^d4 e4 | %43
w: gleich der|Zeit, die|längst ver-|rann.|Sieh, an|dei- nes|Tem- pels|
!>(! B4 B2!>)! z2 |!f! !^!g4 !^!f4 | !^!e4!pp! f4 | ^d6 d2 | e6 z2!D.C.! |] %48
w: Schwel- le|steht das|Volk und|be- tet|an.|
V:2
!p! G4 F4 | E4 G4 |!<(! G4 F4!<)! |!mf! (A2!>(! G2) G2!>)! z2 |!mf! G4 A4 |!<(! (B2 A4)!<)! B2 | %6
!f! A6!>(! G2 | F6!>)! z2 |!p! A4 G4 | E4!<(! A4 | G4!<)!!mf! A4 |!>(! (G4 !breath!F4)!>)! | %12
!mf! E2 E2 F2 G2 | (E2 F2 G2) G2 | (G4 F2!>(! G2) | G4!>)! z4 || G4 G4 |!<(! G4!<)! (B2 A2) | %18
!f!!<(! G6 G2!<)! | G4!>(! G2!>)! z2 |!p! G4!<(! A4 | (G4!<)! A2)!f! B2 | (A4 G2)!>(! F2 | %23
 F6!>)! z2 |!p! E4 D4 | (E2 F2) G4 |!<(! (A4 G2) A2!<)! |!mf! (G2!>(! F2) !breath!F4!>)! | %28
!mf!!<(! G4!<)! B4 |!f! G6 G2 | (G4 F2) G2 |!>(! G6!>)! z2 |!p! G4!<(! G4 | G4!<)! G4 |!f! A4 G4 | %35
!>(! G4!>)! !breath!G4 |!mf! G4 G4 | G4"^dim.\n" A4 | G4!p! =F4 | E6 z2 |!mf!!<(! G4 G4 | %41
 A4!<)! B4 |!f! A4 G4 |!>(! F4 F2!>)! z2 |!f! !^!B4 !^!A4 | !^!G4!pp! A4 | F6 F2 | G6 z2 |] %48
V:3
!p! d4 d4 | B4 d4 |!<(! e4 d4!<)! |!mf! d4!>(! d2!>)! z2 |!mf! d4 ^c4 |!<(! (B2 ^c2!<)! d2) B2 | %6
w: Leih' aus|dei- nes|Him- mels|Hö- hen|uns, o|Gott, _ _ ein|
!f! e6!>(! e2 | d6!>)! z2 |!p! d4 d4 | c4!<(! A4 | d4!<)!!mf! e4 |!>(! (d6 !breath!c2)!>)! | %12
w: gnä- dig|Ohr!|Bis zu|dei- nem|Thron em-|por _|
!mf! B2 B2 c2 d2 | c4 d2 e2 | (d4 c2!>(! B2) | B4!>)! z4 || G4 G4 |!<(! c4!<)! (G2 A2) | %18
w: stei- ge dei- ner|Kin- * *|der Fle- *|hen!|Du al-|lein, aus _|
!f!!<(! B6 c2!<)! | c4!>(! B2!>)! z2 |!p! d4!<(! d4 | (e4!<)! d2)!f! d2 | (d4 ^c2)!>(! d2 | %23
w: ew'- ger|Gna- de,|kennst und|gibst, _ was|uns _ ge-|
 d6!>)! z2 |!p! (G2 A2) B4 | c4 d4 |!<(! d6 e2!<)! |!mf! d4!>(! !breath!d4!>)! | %28
w: bricht,|und _ auf|un- sers|Le- bens|Pfa- de|
!mf!!<(! d4!<)! d4 |!f! (d2 c2 B2) c2 | (d4 c2) B2 |!>(! B6!>)! z2 |!p! d4!<(! B4 | G4!<)! c4 | %34
w: bist du|Trost _ _ und|Heil _ und|Licht.|Dir ist|ganz die|
!f! c4 d4 |!>(! c4!>)! !breath!B4 |!mf! c4 d4 | e4"^dim.\n" =f4 | e4!p! B4 | c6 z2 | %40
w: Zu- kunft|hel- le|gleich der|Zeit, die|längst ver-|rann.|
!mf!!<(! c4 e4 | c4!<)! B4 |!f! B4 B4 |!>(! B4 B2!>)! z2 |!f! !^!e4 !^!^d4 | !^!e4!pp! c4 | B6 B2 | %47
w: Sieh, an|dei- nes|Tem- pels|Schwel- le|steht das|Volk und|be- tet|
 B6 z2 |] %48
w: an.|
V:4
!p! G,4 D,4 | E,4 B,,4 |!<(! C,4 D,4!<)! |!mf! G,4!>(! G,2!>)! z2 |!mf! B,4 A,4 | %5
!<(! (G,4!<)! F,2) G,2 |!f! A,4 A,,4 |!>(! D,6!>)! z2 |!p! F,4 G,4 | (A,2 G,2)!<(! F,4 | %10
 G,4!<)!!mf! C,4 |!>(! !breath!D,8!>)! |!mf! E,2 D,2 C,2 B,,2 | (A,,4 G,,2) C,2 | D,8 | %15
!>(! G,,4!>)! z4 || B,,4 E,4 |!<(! C,4!<)! (G,2 F,2) |!f!!<(! (E,4 D,2) C,2!<)! | %19
 C,4!>(! G,,2!>)! z2 |!p! G,4!<(! F,4 | (E,4!<)! F,2)!f! G,2 | A,4 A,,4 |!>(! D,6!>)! z2 | %24
!p! (E,2 F,2) G,4 | C4 B,4 |!<(! (F,4 G,2) C,2!<)! |!mf! D,6!>(! !breath!C,2!>)! | %28
!mf!!<(! B,,4!<)! G,,4 |!f! (C,4 D,2) E,2 | D,4 D,4 |!>(! [G,,G,]6!>)! z2 |!p! G,4!<(! =F,4 | %33
 E,4!<)! C,4 |!f! A,,4 B,,4 |!>(! C,4!>)! (G,2 !breath!=F,2) |!mf! E,4 B,,4 | C,4"^dim.\n" =F,4 | %38
 G,4!p! G,,4 | C,6 z2 |!mf!!<(! C4 B,4 | A,4!<)! G,4 |!f! F,4 E,4 |!>(! ^D,4 D,2!>)! z2 | %44
!f! !^!E,4 !^!B,4 | !^!C4!pp! A,4 | B,6 B,,2 | E,6 z2 |] %48

